svg/s/AL.svg

<svg width="16" height="12" viewBox="0 0 16 12" fill="none" xmlns="http://www.w3.org/2000/svg">
<g clip-path="url(#clip0_270_54971)">
<rect width="16" height="12" fill="white"/>
<path fill-rule="evenodd" clip-rule="evenodd" d="M0 0H16V12H0V0Z" fill="#F50100"/>
<path fill-rule="evenodd" clip-rule="evenodd" d="M7.94119 7.49086C7.89387 7.4833 7.84757 7.47241 7.80256 7.45841C7.11743 7.99127 6.4575 8.35302 5.81923 8.54037C5.55426 8.61814 5.27642 8.46639 5.19865 8.20143C5.12087 7.93646 5.27262 7.65862 5.53759 7.58085C5.93185 7.46513 6.35197 7.25705 6.79635 6.95512C6.5043 7.00213 6.20171 7.05365 6.0202 7.09246C5.87172 7.12421 5.69343 7.2162 5.52264 7.30433L5.52264 7.30433C5.1899 7.47602 4.88563 7.63302 4.88563 7.30124C4.88563 6.79916 5.17771 6.64902 5.7197 6.42208C6.11841 6.25513 6.37001 6.26025 6.61241 6.26517H6.61242C6.69952 6.26694 6.78543 6.26869 6.87655 6.26242C6.92761 6.2589 6.98239 6.25295 7.03867 6.24535L7.02218 6.15188C6.9717 6.14532 6.92261 6.14016 6.87655 6.13699C6.78543 6.13072 6.69952 6.13247 6.61242 6.13424H6.61241C6.37001 6.13916 6.11841 6.14428 5.7197 5.97733C5.17771 5.75039 4.88563 5.60024 4.88563 5.09817C4.88563 4.76639 5.1899 4.92339 5.52264 5.09508C5.69343 5.18321 5.87172 5.2752 6.0202 5.30695C6.2234 5.35039 6.57833 5.40977 6.90035 5.46092L6.89255 5.41667C6.82593 5.37841 6.76391 5.33451 6.70994 5.28415C6.48519 5.07443 6.30149 5.03948 6.07346 4.99608C5.92137 4.96714 5.74956 4.93444 5.53271 4.84364C4.99072 4.6167 4.66433 4.17326 4.66433 3.67118C4.66433 3.34525 4.94533 3.55668 5.27986 3.80837C5.46064 3.94439 5.65706 4.09218 5.83321 4.17326C6.00686 4.25319 6.18427 4.3175 6.34653 4.37632L6.34654 4.37632C6.51291 4.43662 6.66336 4.49116 6.7775 4.55084C6.77969 4.52877 6.7826 4.50689 6.78623 4.48523C6.72617 4.442 6.67438 4.39079 6.63544 4.33014C6.36964 3.91614 6.01298 3.7668 5.47434 3.54126L5.46835 3.53875C4.92636 3.31181 4.59998 2.86837 4.59998 2.3663C4.59998 2.04036 4.88098 2.25179 5.2155 2.50348C5.39629 2.6395 5.59271 2.78729 5.76885 2.86837C6.27093 3.09949 6.65692 3.29838 6.90222 3.7657C6.94998 3.85668 6.99879 3.92038 7.04645 3.96397C7.10784 3.89901 7.1779 3.84215 7.25486 3.79535C7.15148 3.04761 6.97663 2.67214 6.81126 2.64137C6.53978 2.59086 6.36064 2.32984 6.41115 2.05835C6.46166 1.78687 6.72269 1.60773 6.99417 1.65824C7.66235 1.78256 8.04175 2.40265 8.22021 3.48861C8.39867 2.40265 8.77806 1.78256 9.44624 1.65824C9.71773 1.60773 9.97875 1.78687 10.0293 2.05835C10.0798 2.32984 9.90063 2.59086 9.62915 2.64137C9.46421 2.67206 9.28983 3.04567 9.18635 3.78956C9.2743 3.8274 9.35529 3.87736 9.42748 3.93712C9.46644 3.89539 9.50589 3.83952 9.54464 3.7657C9.78993 3.29838 10.1759 3.09949 10.678 2.86837C10.8541 2.78729 11.0506 2.63951 11.2314 2.50348L11.2314 2.50348C11.5659 2.25179 11.8469 2.04036 11.8469 2.3663C11.8469 2.86837 11.5205 3.31181 10.9785 3.53875L10.9725 3.54126C10.4339 3.7668 10.0772 3.91614 9.81142 4.33014C9.79253 4.35956 9.77063 4.38675 9.74622 4.41189C9.75554 4.44179 9.76348 4.47224 9.76997 4.50314C9.86638 4.46111 9.97912 4.42025 10.1003 4.37632L10.1003 4.37632C10.2626 4.3175 10.44 4.25319 10.6137 4.17326C10.7898 4.09218 10.9862 3.94439 11.167 3.80837C11.5015 3.55668 11.7825 3.34525 11.7825 3.67118C11.7825 4.17326 11.4561 4.6167 10.9142 4.84364C10.6973 4.93444 10.5255 4.96714 10.3734 4.99608C10.1454 5.03948 9.96167 5.07443 9.73692 5.28415C9.72145 5.29859 9.70531 5.3125 9.68859 5.3259L9.6658 5.44183C9.95308 5.39548 10.2483 5.34508 10.4267 5.30695C10.5751 5.2752 10.7534 5.18321 10.9242 5.09508C11.257 4.92339 11.5612 4.76639 11.5612 5.09817C11.5612 5.60024 11.2691 5.75039 10.7272 5.97733C10.3284 6.14428 10.0768 6.13916 9.83445 6.13424H9.83444C9.74734 6.13247 9.66143 6.13072 9.5703 6.13699C9.55661 6.13794 9.54265 6.13905 9.52847 6.14033L9.50555 6.2569C9.52766 6.25911 9.5493 6.26097 9.5703 6.26242C9.66143 6.26869 9.74734 6.26694 9.83444 6.26517H9.83445C10.0768 6.26025 10.3284 6.25513 10.7272 6.42208C11.2691 6.64902 11.5612 6.79916 11.5612 7.30124C11.5612 7.63302 11.257 7.47602 10.9242 7.30433L10.9242 7.30433L10.9242 7.30432C10.7534 7.2162 10.5751 7.12421 10.4267 7.09246C10.2537 7.05548 9.97072 7.00695 9.69172 6.96177C10.1325 7.26011 10.5493 7.46598 10.9407 7.58085C11.2056 7.65862 11.3574 7.93646 11.2796 8.20143C11.2018 8.46639 10.924 8.61814 10.659 8.54037C10.0257 8.35448 9.37109 7.99688 8.69167 7.4708C8.66379 7.47811 8.63547 7.48424 8.60677 7.48914C8.72885 8.03356 9.68436 8.48274 9.68436 8.48274C9.68436 8.48274 8.46387 10.8313 8.27023 10.8313C8.0766 10.8313 6.77846 8.48274 6.77846 8.48274C7.45809 8.23021 7.81173 7.71899 7.94119 7.49086Z" fill="#1A1A1A"/>
</g>
<defs>
<clipPath id="clip0_270_54971">
<rect width="16" height="12" fill="white"/>
</clipPath>
</defs>
</svg>

<svg width="16" height="12" fill="none" xmlns="http://www.w3.org/2000/svg">
  <mask id="a" maskUnits="userSpaceOnUse" x="0" y="0" width="16" height="12">
    <rect width="16" height="12" rx="-1" fill="#fff"/>
  </mask>
  <g mask="url(#a)" fill-rule="evenodd" clip-rule="evenodd">
    <path d="M0 0h16v12H0V0z" fill="#F50100"/>
    <path d="M7.941 7.49a.995.995 0 01-.138-.032c-.686.533-1.346.895-1.984 1.082a.5.5 0 01-.281-.96c.394-.115.814-.323 1.258-.625-.292.047-.594.099-.776.137-.148.032-.327.124-.497.212-.333.172-.637.329-.637-.003 0-.502.292-.652.834-.879.398-.167.65-.162.892-.157.088.002.173.004.265-.003.05-.003.105-.009.162-.017l-.017-.093a2.044 2.044 0 00-.41-.018c-.242.005-.494.01-.892-.157-.542-.227-.834-.377-.834-.879 0-.332.304-.175.637-.003.17.088.349.18.497.212.203.043.558.103.88.154l-.007-.044a.988.988 0 01-.183-.133c-.225-.21-.409-.245-.637-.288a2.487 2.487 0 01-.54-.152c-.542-.227-.869-.67-.869-1.173 0-.326.281-.114.616.137.18.136.377.284.553.365.174.08.351.144.514.203.166.06.316.115.43.175a.986.986 0 01.01-.066.577.577 0 01-.152-.155c-.265-.414-.622-.563-1.16-.789l-.007-.002c-.542-.227-.868-.67-.868-1.173 0-.326.281-.114.615.137.181.136.378.284.554.365.502.231.888.43 1.133.898a.716.716 0 00.144.198c.062-.065.132-.122.209-.169-.104-.747-.278-1.123-.444-1.154a.5.5 0 11.183-.983c.668.125 1.048.745 1.226 1.83.179-1.085.558-1.705 1.226-1.83a.5.5 0 01.183.983c-.165.031-.34.405-.443 1.149a.994.994 0 01.241.147.782.782 0 00.118-.171c.245-.468.63-.667 1.133-.898.176-.08.373-.228.553-.365.335-.251.616-.463.616-.137 0 .502-.326.946-.868 1.173l-.006.002c-.54.226-.896.375-1.162.79a.523.523 0 01-.065.08c.01.03.017.061.024.092.096-.042.21-.083.33-.127a6.58 6.58 0 00.514-.203c.176-.08.372-.229.553-.365.335-.251.616-.463.616-.137 0 .502-.327.946-.869 1.173-.217.09-.389.123-.54.152-.229.043-.412.078-.637.288a.848.848 0 01-.048.042l-.023.116c.287-.047.582-.097.76-.135.15-.032.327-.124.498-.212.333-.172.637-.329.637.003 0 .502-.292.652-.834.88-.399.166-.65.161-.893.156a2.024 2.024 0 00-.306.006l-.022.117.064.005c.091.007.177.005.264.003.243-.005.494-.01.893.157.542.227.834.377.834.88 0 .331-.304.174-.637.002-.17-.088-.349-.18-.497-.212a17.52 17.52 0 00-.735-.13c.44.298.857.504 1.249.619a.5.5 0 01-.282.96c-.633-.187-1.288-.544-1.967-1.07a.995.995 0 01-.085.018c.122.545 1.077.994 1.077.994S8.464 10.83 8.27 10.83c-.193 0-1.492-2.348-1.492-2.348a2.265 2.265 0 001.163-.992z" fill="#1A1A1A"/>
  </g>
</svg>
